src/Common/Languages/en/en.svg

<?xml version="1.0" encoding="UTF-8" standalone="no"?>
<svg
   xmlns:dc="http://purl.org/dc/elements/1.1/"
   xmlns:cc="http://creativecommons.org/ns#"
   xmlns:rdf="http://www.w3.org/1999/02/22-rdf-syntax-ns#"
   xmlns:svg="http://www.w3.org/2000/svg"
   xmlns="http://www.w3.org/2000/svg"
   xmlns:sodipodi="http://sodipodi.sourceforge.net/DTD/sodipodi-0.dtd"
   xmlns:inkscape="http://www.inkscape.org/namespaces/inkscape"
   viewBox="0 0 60 40"
   width="1200"
   height="800"
   id="svg2"
   version="1.1"
   inkscape:version="0.47 r22583"
   sodipodi:docname="All-Fl-svg-GBR.svg">
  <metadata
     id="metadata21">
    <rdf:RDF>
      <cc:Work
         rdf:about="">
        <dc:format>image/svg+xml</dc:format>
        <dc:type
           rdf:resource="http://purl.org/dc/dcmitype/StillImage" />
      </cc:Work>
    </rdf:RDF>
  </metadata>
  <defs
     id="defs19">
    <inkscape:perspective
       sodipodi:type="inkscape:persp3d"
       inkscape:vp_x="0 : 300 : 1"
       inkscape:vp_y="0 : 1000 : 0"
       inkscape:vp_z="1200 : 300 : 1"
       inkscape:persp3d-origin="600 : 200 : 1"
       id="perspective24" />
    <inkscape:perspective
       id="perspective3626"
       inkscape:persp3d-origin="0.5 : 0.33333333 : 1"
       inkscape:vp_z="1 : 0.5 : 1"
       inkscape:vp_y="0 : 1000 : 0"
       inkscape:vp_x="0 : 0.5 : 1"
       sodipodi:type="inkscape:persp3d" />
    <inkscape:perspective
       id="perspective3651"
       inkscape:persp3d-origin="0.5 : 0.33333333 : 1"
       inkscape:vp_z="1 : 0.5 : 1"
       inkscape:vp_y="0 : 1000 : 0"
       inkscape:vp_x="0 : 0.5 : 1"
       sodipodi:type="inkscape:persp3d" />
    <inkscape:perspective
       id="perspective3825"
       inkscape:persp3d-origin="0.5 : 0.33333333 : 1"
       inkscape:vp_z="1 : 0.5 : 1"
       inkscape:vp_y="0 : 1000 : 0"
       inkscape:vp_x="0 : 0.5 : 1"
       sodipodi:type="inkscape:persp3d" />
    <inkscape:perspective
       id="perspective3878"
       inkscape:persp3d-origin="0.5 : 0.33333333 : 1"
       inkscape:vp_z="1 : 0.5 : 1"
       inkscape:vp_y="0 : 1000 : 0"
       inkscape:vp_x="0 : 0.5 : 1"
       sodipodi:type="inkscape:persp3d" />
    <inkscape:perspective
       id="perspective3902"
       inkscape:persp3d-origin="0.5 : 0.33333333 : 1"
       inkscape:vp_z="1 : 0.5 : 1"
       inkscape:vp_y="0 : 1000 : 0"
       inkscape:vp_x="0 : 0.5 : 1"
       sodipodi:type="inkscape:persp3d" />
    <inkscape:perspective
       id="perspective3940"
       inkscape:persp3d-origin="0.5 : 0.33333333 : 1"
       inkscape:vp_z="1 : 0.5 : 1"
       inkscape:vp_y="0 : 1000 : 0"
       inkscape:vp_x="0 : 0.5 : 1"
       sodipodi:type="inkscape:persp3d" />
    <inkscape:perspective
       id="perspective3980"
       inkscape:persp3d-origin="0.5 : 0.33333333 : 1"
       inkscape:vp_z="1 : 0.5 : 1"
       inkscape:vp_y="0 : 1000 : 0"
       inkscape:vp_x="0 : 0.5 : 1"
       sodipodi:type="inkscape:persp3d" />
    <inkscape:perspective
       id="perspective4008"
       inkscape:persp3d-origin="0.5 : 0.33333333 : 1"
       inkscape:vp_z="1 : 0.5 : 1"
       inkscape:vp_y="0 : 1000 : 0"
       inkscape:vp_x="0 : 0.5 : 1"
       sodipodi:type="inkscape:persp3d" />
    <inkscape:perspective
       id="perspective4033"
       inkscape:persp3d-origin="0.5 : 0.33333333 : 1"
       inkscape:vp_z="1 : 0.5 : 1"
       inkscape:vp_y="0 : 1000 : 0"
       inkscape:vp_x="0 : 0.5 : 1"
       sodipodi:type="inkscape:persp3d" />
    <inkscape:perspective
       id="perspective4055"
       inkscape:persp3d-origin="0.5 : 0.33333333 : 1"
       inkscape:vp_z="1 : 0.5 : 1"
       inkscape:vp_y="0 : 1000 : 0"
       inkscape:vp_x="0 : 0.5 : 1"
       sodipodi:type="inkscape:persp3d" />
    <inkscape:perspective
       id="perspective4055-9"
       inkscape:persp3d-origin="0.5 : 0.33333333 : 1"
       inkscape:vp_z="1 : 0.5 : 1"
       inkscape:vp_y="0 : 1000 : 0"
       inkscape:vp_x="0 : 0.5 : 1"
       sodipodi:type="inkscape:persp3d" />
    <inkscape:perspective
       id="perspective4096"
       inkscape:persp3d-origin="0.5 : 0.33333333 : 1"
       inkscape:vp_z="1 : 0.5 : 1"
       inkscape:vp_y="0 : 1000 : 0"
       inkscape:vp_x="0 : 0.5 : 1"
       sodipodi:type="inkscape:persp3d" />
  </defs>
  <sodipodi:namedview
     pagecolor="#ffffff"
     bordercolor="#666666"
     borderopacity="1"
     objecttolerance="10"
     gridtolerance="10"
     guidetolerance="10"
     inkscape:pageopacity="0"
     inkscape:pageshadow="2"
     inkscape:window-width="640"
     inkscape:window-height="480"
     id="namedview17"
     showgrid="false"
     showguides="true"
     inkscape:guide-bbox="true"
     inkscape:zoom="0.5200722"
     inkscape:cx="496.71665"
     inkscape:cy="565.30612"
     inkscape:current-layer="svg2">
    <sodipodi:guide
       position="1200,100"
       orientation="-600,0"
       id="guide3962" />
    <sodipodi:guide
       position="0,700"
       orientation="600,0"
       id="guide3966" />
    <sodipodi:guide
       position="0,0"
       orientation="0,1200"
       id="guide3604" />
    <sodipodi:guide
       position="1200,0"
       orientation="-800,0"
       id="guide3606" />
    <sodipodi:guide
       position="1200,800"
       orientation="0,-1200"
       id="guide3608" />
    <sodipodi:guide
       position="0,800"
       orientation="800,0"
       id="guide3610" />
    <sodipodi:guide
       orientation="1,0"
       position="90.779444,808.7042"
       id="guide3614" />
    <sodipodi:guide
       orientation="1,0"
       position="131.83353,56.260168"
       id="guide3616" />
    <sodipodi:guide
       orientation="0,1"
       position="-18.113269,711.10565"
       id="guide3668" />
    <sodipodi:guide
       orientation="1,0"
       position="1066.5916,712.12875"
       id="guide3672" />
    <sodipodi:guide
       orientation="1,0"
       position="1109.298,712.12875"
       id="guide3674" />
    <sodipodi:guide
       orientation="0,1"
       position="1188.5183,67.262536"
       id="guide3676" />
    <sodipodi:guide
       orientation="0,1"
       position="1172.717,45.268754"
       id="guide3678" />
    <sodipodi:guide
       orientation="0,1"
       position="-8.121616,500.55532"
       id="guide3680" />
    <sodipodi:guide
       orientation="1,0"
       position="499.31973,537.41497"
       id="guide3839" />
  </sodipodi:namedview>
  <g
     id="g3720">
    <path
       id="rect2918"
       d="M 0,-2.0000001e-7 L 60,-2.0000001e-7 L 60,40 L 0,40 L 0,-2.0000001e-7 z"
       style="fill:#ffffff;fill-opacity:1;fill-rule:evenodd;stroke:none" />
    <g
       id="g2851">
      <path
         style="fill:#cf142b;fill-opacity:1;fill-rule:evenodd;stroke:none"
         d="M 0,16.976535 L 0,22.984356 L 26.998112,22.984356 L 26.998112,40 L 32.981209,40 L 32.981209,22.984356 L 60,22.984356 L 60,16.976535 L 32.981209,16.976535 L 32.981209,0 L 26.998112,0 L 26.998112,16.976535 L 0,16.976535 z"
         id="rect2877"
         sodipodi:nodetypes="ccccccccccccc" />
      <path
         style="fill:#00247d;fill-opacity:1;fill-rule:evenodd;stroke:none"
         d="M 15.817188,14.972234 L 0,4.440984 L 0,14.972234 L 15.817188,14.972234 z"
         id="path3930" />
      <path
         style="fill:#00247d;fill-opacity:1;fill-rule:evenodd;stroke:none"
         d="M 24.965987,12.232813 L 24.965987,0 L 6.5925485,0 L 24.965987,12.232813 z"
         id="path3970" />
      <path
         style="fill:#cf142b;fill-opacity:1;fill-rule:evenodd;stroke:none"
         d="M 0,0 L 0,2.965625 L 17.98125,14.971875 L 22.457812,14.971875 L 0,0 z"
         id="rect2877-4-6-2" />
      <path
         style="fill:#00247d;fill-opacity:1;fill-rule:evenodd;stroke:none"
         d="M 44.182812,14.972234 L 60,4.440984 L 60,14.972234 L 44.182812,14.972234 z"
         id="path3930-0" />
      <path
         style="fill:#00247d;fill-opacity:1;fill-rule:evenodd;stroke:none"
         d="M 35.034013,12.232813 L 35.034013,-4e-7 L 53.32958,0 L 35.034013,12.232813 z"
         id="path3970-1"
         sodipodi:nodetypes="cccc" />
      <path
         style="fill:#cf142b;fill-opacity:1;fill-rule:evenodd;stroke:none"
         d="M 60,0 L 37.541825,14.972234 L 35.034014,14.972234 L 35.034014,13.642547 L 55.465626,0 L 60,0 z"
         id="rect2877-4-6-0-2-7"
         sodipodi:nodetypes="cccccc" />
      <path
         style="fill:#00247d;fill-opacity:1;fill-rule:evenodd;stroke:none"
         d="M 15.817187,25.027766 L 0,35.559016 L 0,25.027766 L 15.817187,25.027766 z"
         id="path3930-4"
         sodipodi:nodetypes="cccc" />
      <path
         style="fill:#00247d;fill-opacity:1;fill-rule:evenodd;stroke:none"
         d="M 24.965986,27.767187 L 24.965986,40 L 6.5925483,40 L 24.965986,27.767187 z"
         id="path3970-8" />
      <path
         style="fill:#cf142b;fill-opacity:1;fill-rule:evenodd;stroke:none"
         d="M 0,40 L 22.457812,25.028125 L 24.965623,25.028125 L 24.965623,26.357812 L 4.5343743,40 L 0,40 z"
         id="rect2877-4-6-0-2-4" />
      <path
         style="fill:#00247d;fill-opacity:1;fill-rule:evenodd;stroke:none"
         d="M 44.182811,25.027766 L 60,35.559016 L 60,25.027766 L 44.182811,25.027766 z"
         id="path3930-42" />
      <path
         style="fill:#00247d;fill-opacity:1;fill-rule:evenodd;stroke:none"
         d="M 34.956142,27.767187 L 34.956142,40 L 53.32958,40 L 34.956142,27.767187 z"
         id="path3970-0" />
      <path
         style="fill:#cf142b;fill-opacity:1;fill-rule:evenodd;stroke:none"
         d="M 60,40 L 60,37.034375 L 42.018749,25.028125 L 37.542188,25.028125 L 60,40 z"
         id="rect2877-4-6-2-6" />
    </g>
  </g>
</svg>

<?xml version="1.0" encoding="UTF-8" standalone="no"?>
<svg id="svg2" xmlns:rdf="http://www.w3.org/1999/02/22-rdf-syntax-ns#" xmlns="http://www.w3.org/2000/svg" height="800" viewBox="0 0 60 40" width="1200" version="1.1" xmlns:cc="http://creativecommons.org/ns#" xmlns:dc="http://purl.org/dc/elements/1.1/">
<metadata id="metadata21">
<rdf:RDF>
<cc:Work rdf:about="">
<dc:format>image/svg+xml</dc:format>
<dc:type rdf:resource="http://purl.org/dc/dcmitype/StillImage"/>
<dc:title/>
</cc:Work>
</rdf:RDF>
</metadata>
<path id="rect4173" d="m0 0h60v40h-60z" fill-rule="evenodd" fill="#fff"/>
<path id="rect2877" d="m0 16.977v6.007h26.998v17.016h5.983v-17.016h27.019v-6.007h-27.019v-16.977h-5.983v16.977h-26.998z" fill-rule="evenodd" fill="#cf142b"/>
<path id="path3930" d="m15.817 14.972l-15.817-10.531v10.531h15.817z" fill-rule="evenodd" fill="#00247d"/>
<path id="path3970" d="m24.966 12.233v-12.233h-18.374l18.374 12.233z" fill-rule="evenodd" fill="#00247d"/>
<path id="rect2877-4-6-2" d="m0 0v2.9656l17.981 12.006h4.477l-22.458-14.972z" fill-rule="evenodd" fill="#cf142b"/>
<path id="path3930-0" d="m44.183 14.972l15.817-10.531v10.531h-15.817z" fill-rule="evenodd" fill="#00247d"/>
<path id="path3970-1" d="m35.034 12.233v-12.233h18.296l-18.296 12.233z" fill-rule="evenodd" fill="#00247d"/>
<path id="rect2877-4-6-0-2-7" d="m60 0l-22.458 14.972h-2.508v-1.329l20.432-13.643h4.534z" fill-rule="evenodd" fill="#cf142b"/>
<path id="path3930-4" d="m15.817 25.028l-15.817 10.531v-10.531h15.817z" fill-rule="evenodd" fill="#00247d"/>
<path id="path3970-8" d="m24.966 27.767v12.233h-18.374l18.374-12.233z" fill-rule="evenodd" fill="#00247d"/>
<path id="rect2877-4-6-0-2-4" d="m0 40l22.458-14.972h2.508v1.33l-20.432 13.642h-4.534z" fill-rule="evenodd" fill="#cf142b"/>
<path id="path3930-42" d="m44.183 25.028l15.817 10.531v-10.531h-15.817z" fill-rule="evenodd" fill="#00247d"/>
<path id="path3970-0" d="m34.956 27.767v12.233h18.374l-18.374-12.233z" fill-rule="evenodd" fill="#00247d"/>
<path id="rect2877-4-6-2-6" d="m60 40v-2.966l-17.981-12.006h-4.477l22.458 14.972z" fill-rule="evenodd" fill="#cf142b"/>
</svg>
